X:105
T: Frau von Weissenburg
N: Q0030B
O: Mitteleuropa, Deutschland (DDR) , Provinz Brandenburg ?
R: Ballade, Ehebruch, Mord, Moral
M: 4/8
L: 1/16
K: C
c4 | c2G2A2G2 | c4
e4 | d2c2B2d2 | G4z2
c2 | c2G2A2EF | G4E2
G2 | c2G2E2D2 | C4

@@@ Tune index: 734
